X: 191
M: C|
L: 1/8
K: D
|:\
|:\
e2ee e2e2 | e4 z4 | f2ff f2f2 | f4 z4 |\
a2ag f2fe | d2d2 A2A2 | abag fgfe | d2d2 A2A2 |
a2gf Te3d | d8 :|

